X:1
T:B minor Polka
R:polka
S:Eileen Ni Riordan
Z:id:hn-polka-1
M:2/4
L:1/8
K:Bm
af f>g|af f>g|af ef|dB c/B/A|af f>g|af fe|de/d/ cA|1 B2 BA:|2 B2 Bc||
|:d/e/d/c/ df|e>d ce|dB c/B/A|Bc de|
d/e/d/c/ df|e>d ce|dB c/B/A|1 B2 Bc:|2 B2 BA||
<end>
<start>
